packages/core/src/browser/icons/add-inverse.svg

<svg viewBox="0 0 16 16" xmlns="http://www.w3.org/2000/svg"><path d="m16 16h-16v-16h16z" fill="#252526" opacity="0"/><path d="m13 7v2h-4v4h-2v-4h-4v-2h4v-4h2v4z" fill="#c5c5c5"/></svg>

<!--Copyright (c) Microsoft Corporation. All rights reserved.-->
<!--Copyright (C) 2019 TypeFox and others.-->
<!--Licensed under the MIT License. See License.txt in the project root for license information.-->
<svg xmlns="http://www.w3.org/2000/svg" viewBox="0 0 16 16"><defs><style>.icon-canvas-transparent,.icon-vs-out{fill:#252526;}.icon-canvas-transparent{opacity:0;}.icon-vs-bg{fill:#c5c5c5;}</style></defs><title>add</title><g id="canvas"><path class="icon-canvas-transparent" d="M16,16H0V0H16Z"/></g><g id="outline" style="display: none;"><path class="icon-vs-out" d="M14,6v4H10v4H6V10H2V6H6V2h4V6Z"/></g><g id="iconBg"><path class="icon-vs-bg" d="M13,7V9H9v4H7V9H3V7H7V3H9V7Z"/></g></svg>
